packages/core/src/svgs/omg.svg

<svg width="24" height="24" viewBox="0 0 24 24" fill="none" xmlns="http://www.w3.org/2000/svg">
<g clip-path="url(#clip0_31_15367)">
<path d="M0 0H24V24H0V0Z" fill="url(#paint0_linear_31_15367)"/>
<path fill-rule="evenodd" clip-rule="evenodd" d="M5.78571 15.4284C7.32429 15.4284 8.57143 13.8941 8.57143 11.9999C8.57143 10.1056 7.32429 8.57129 5.78571 8.57129C4.24714 8.57129 3 10.1056 3 11.9999C3 13.8941 4.24714 15.4284 5.78571 15.4284ZM5.78571 14.5713C6.85286 14.5713 7.71429 13.4184 7.71429 11.9999C7.71429 10.5813 6.85286 9.42843 5.78571 9.42843C4.71857 9.42843 3.85714 10.5813 3.85714 11.9999C3.85714 13.4184 4.71857 14.5713 5.78571 14.5713ZM9 15.4284H9.85714V10.4913L11.4386 15.4284H12.4457L14.1429 10.4913V15.4284H15V8.57129H13.6114L11.9486 14.0399L10.3157 8.57129H9V15.4284ZM18.2143 15.4284C18.5863 15.4208 18.952 15.3312 19.2853 15.166C19.6187 15.0008 19.9115 14.7641 20.1429 14.4727V15.4284H21V11.9999H18V12.857H20.0486C19.8 13.8899 19.0714 14.6399 18.2143 14.6399C17.1471 14.6399 16.2857 13.487 16.2857 12.0684C16.2857 10.6456 17.1471 9.497 18.2143 9.497C19.1271 9.497 19.6714 9.98129 19.9371 10.7141H20.8457C20.52 9.45843 19.6714 8.57129 18.2143 8.57129C16.6757 8.57129 15.4286 10.1056 15.4286 11.9999C15.4286 13.8941 16.6757 15.4284 18.2143 15.4284Z" fill="white"/>
</g>
<defs>
<linearGradient id="paint0_linear_31_15367" x1="4.46571" y1="4.16143" x2="29.2071" y2="32.58" gradientUnits="userSpaceOnUse">
<stop stop-color="#1A1E21"/>
<stop offset="1" stop-color="#06060A"/>
</linearGradient>
<clipPath id="clip0_31_15367">
<rect width="24" height="24" fill="white"/>
</clipPath>
</defs>
</svg>

<svg xmlns="http://www.w3.org/2000/svg" width="24" height="24" fill="none" viewBox="0 0 24 24"><g clip-path="url(#a)"><path fill="url(#b)" d="M0 0h24v24H0z"/><path fill="#fff" fill-rule="evenodd" d="M5.786 15.428c1.538 0 2.785-1.534 2.785-3.428S7.324 8.57 5.786 8.57 3 10.106 3 12s1.247 3.428 2.786 3.428m0-.857c1.067 0 1.928-1.153 1.928-2.571s-.861-2.572-1.928-2.572S3.857 10.581 3.857 12c0 1.418.862 2.571 1.929 2.571M9 15.428h.857v-4.937l1.582 4.937h1.007l1.697-4.937v4.937H15V8.571h-1.389L11.95 14.04 10.316 8.57H9zm9.214 0a2.53 2.53 0 0 0 1.929-.955v.955H21V12h-3v.857h2.049c-.249 1.033-.978 1.783-1.835 1.783-1.067 0-1.928-1.153-1.928-2.572 0-1.422.861-2.571 1.928-2.571.913 0 1.457.484 1.723 1.217h.909c-.326-1.256-1.175-2.143-2.632-2.143-1.538 0-2.785 1.535-2.785 3.429s1.247 3.428 2.785 3.428" clip-rule="evenodd"/></g><defs><linearGradient id="b" x1="4.466" x2="29.207" y1="4.161" y2="32.58" gradientUnits="userSpaceOnUse"><stop stop-color="#1A1E21"/><stop offset="1" stop-color="#06060A"/></linearGradient><clipPath id="a"><path fill="#fff" d="M0 0h24v24H0z"/></clipPath></defs></svg>
